!!!OTL: ICH DENK AN EUCH
!!!ARE: Europa, Mitteleuropa, Deutschland
!!!SCT: F1072
!!!YEM: Copyright 1995, estate of Helmut Schaffrath.
**kern
*ICvox
*Ivox
*M4/4
*k[]
*C:
{8G
8G
8G
=1
4.E
8E
8E
8E
8.F
16G
=2
8.G
16F
4D
4r}
{4B
=3
4.c
16B
16A
8G
8E
8D
16E
16F
=4
4F
4E
8r}
{8G
8c
8e
=5
4.d
8e
8f
8d
16c
16B
16A
16G
=6
8.G
16c
4c
8r}
{8c
8B
8B-
=7
8A
8A
8B
8c
4G
8A
8B
=8
4c
4.r}
==
!!!AGN: Trost - Lied
!!!ONB: ESAC (Essen Associative Code) Database: FINK
!!!AMT: simple quadruple
!!!AIN: vox
!!!EED: Helmut Schaffrath
!!!EEV: 1.0
*-
